less/source/img/icons/pinterest.svg

<svg width="22" height="22" viewBox="0 0 22 22" fill="none" xmlns="http://www.w3.org/2000/svg">
<path d="M11 8.96454e-05C4.92488 8.96454e-05 0 4.92497 0 11C0 15.6602 2.8994 19.644 6.99129 21.2467C6.89517 20.3764 6.80825 19.0379 7.02943 18.0878C7.22934 17.2293 8.31931 12.6201 8.31931 12.6201C8.31931 12.6201 7.99028 11.9612 7.99028 10.987C7.99028 9.45743 8.87682 8.31552 9.98068 8.31552C10.9192 8.31552 11.3724 9.0201 11.3724 9.86499C11.3724 10.8088 10.7716 12.2199 10.4615 13.5275C10.2023 14.6223 11.0105 15.5152 12.0904 15.5152C14.0454 15.5152 15.5483 13.4537 15.5483 10.4781C15.5483 7.84429 13.6558 6.00285 10.9535 6.00285C7.82365 6.00285 5.98653 8.35042 5.98653 10.7765C5.98653 11.7219 6.35073 12.7357 6.80518 13.2868C6.89508 13.3958 6.90824 13.4912 6.88146 13.6023C6.79797 13.9498 6.6124 14.6969 6.57597 14.8498C6.528 15.0512 6.41655 15.0939 6.20808 14.9969C4.83426 14.3574 3.9753 12.3488 3.9753 10.7355C3.9753 7.26559 6.49644 4.07891 11.2434 4.07891C15.0593 4.07891 18.0247 6.79806 18.0247 10.432C18.0247 14.223 15.6344 17.2739 12.3167 17.2739C11.202 17.2739 10.1542 16.6949 9.79547 16.0109C9.79547 16.0109 9.2439 18.1111 9.11018 18.6258C8.86186 19.5812 8.19145 20.7788 7.74303 21.5095C8.77223 21.8281 9.86598 22 11 22C17.0751 22 22 17.0751 22 11C22 4.92497 17.0751 8.96454e-05 11 8.96454e-05Z" fill="#BDBDBD"/>
</svg>

<svg width="22" height="22" viewBox="0 0 22 22" fill="none" xmlns="http://www.w3.org/2000/svg">
  <path d="M11 0a11 11 0 0 0-4 21.25c-.1-.87-.2-2.21.03-3.16l1.29-5.47s-.33-.66-.33-1.63c0-1.53.89-2.67 2-2.67.93 0 1.38.7 1.38 1.54 0 .95-.6 2.36-.9 3.67-.27 1.1.54 1.99 1.62 1.99 1.96 0 3.46-2.07 3.46-5.04 0-2.64-1.9-4.48-4.6-4.48A4.76 4.76 0 0 0 6 10.78c0 .94.36 1.96.82 2.5.09.12.1.21.07.32l-.3 1.25c-.05.2-.16.24-.37.15-1.38-.64-2.23-2.65-2.23-4.26 0-3.47 2.52-6.66 7.26-6.66 3.82 0 6.78 2.72 6.78 6.35 0 3.8-2.39 6.84-5.7 6.84-1.12 0-2.17-.58-2.52-1.26l-.69 2.62a12.3 12.3 0 0 1-1.37 2.88A11 11 0 1 0 11 0Z" fill="#BDBDBD"/>
</svg>
